assets/img/braze_icons/share-06.svg

<svg fill="none" height="24" viewBox="0 0 24 24" width="24" xmlns="http://www.w3.org/2000/svg"><path clip-rule="evenodd" d="m10.3373 3.13945c.2931-.35963.7361-.5634 1.1999-.55189.4066.01009.7137.21386.8683.32392.1648.11732.3525.27821.5386.43777.0091.00782.0182.01564.0273.02345l8.4904 7.2774c.1044.0895.2257.1934.3235.293.1106.1127.2654.2917.3581.5498.1177.3278.1177.6864 0 1.0142-.0927.2581-.2475.4371-.3581.5498-.0978.0996-.2191.2035-.3235.2929l-8.5178 7.301c-.186.1595-.3737.3204-.5385.4377-.1546.1101-.4617.3138-.8683.3239-.4638.0115-.9068-.1922-1.1999-.5519-.257-.3153-.3021-.681-.3192-.87-.01819-.2016-.01815-.4487-.0181-.6939v-3.1002c-.9422.1629-1.85999.4553-2.72671.8711-1.35132.6483-2.54656 1.581-3.50385 2.7342-.26914.3242-.71263.4449-1.10897.3018-.39634-.143-.66047-.5192-.66047-.9405v-.612c.00136-2.6208.96754-5.1498 2.71418-7.1036 1.41242-1.57998 3.25522-2.69471 5.28582-3.21889v-3.48915c0-.01199 0-.024 0-.03602-.00005-.24512-.00009-.4923.0181-.69382.0171-.18903.0622-.55479.3192-.87007z" fill="#801ed7" fill-rule="evenodd"/></svg>

<svg width="24" height="24" viewBox="0 0 24 24" fill="none" xmlns="http://www.w3.org/2000/svg">
<path fill-rule="evenodd" clip-rule="evenodd" d="M10.3373 3.13945C10.6304 2.77982 11.0734 2.57605 11.5372 2.58756C11.9438 2.59765 12.2509 2.80142 12.4055 2.91148C12.5703 3.0288 12.758 3.18969 12.9441 3.34925C12.9532 3.35707 12.9623 3.36489 12.9714 3.3727L21.4618 10.6501C21.5662 10.7396 21.6875 10.8435 21.7853 10.9431C21.8959 11.0558 22.0507 11.2348 22.1434 11.4929C22.2611 11.8207 22.2611 12.1793 22.1434 12.5071C22.0507 12.7652 21.8959 12.9442 21.7853 13.0569C21.6875 13.1565 21.5662 13.2604 21.4618 13.3498L12.944 20.6508C12.758 20.8103 12.5703 20.9712 12.4055 21.0885C12.2509 21.1986 11.9438 21.4023 11.5372 21.4124C11.0734 21.4239 10.6304 21.2202 10.3373 20.8605C10.0803 20.5452 10.0352 20.1795 10.0181 19.9905C9.99991 19.7889 9.99995 19.5418 10 19.2966L10 16.1964C9.0578 16.3593 8.14001 16.6517 7.27329 17.0675C5.92197 17.7158 4.72673 18.6485 3.76944 19.8017C3.5003 20.1259 3.05681 20.2466 2.66047 20.1035C2.26413 19.9605 2 19.5843 2 19.163V18.551C2.00136 15.9302 2.96754 13.4012 4.71418 11.4474C6.1266 9.86742 7.9694 8.75269 10 8.22851V4.73936C10 4.72737 10 4.71536 10 4.70334C9.99995 4.45822 9.99991 4.21104 10.0181 4.00952C10.0352 3.82049 10.0803 3.45473 10.3373 3.13945Z" fill="#801ED7"/>
</svg>
